X: 24922
T: Maid At The Well, The
R: jig
M: 6/8
K: Amajor
B|:AFE ECE|Ace f2a|ecB BAB|cAF F2G|
AFE ECE|Ace f2a|ecB BAB|1 cAG AcB:|2 cAG A2 B||
c2e fee|aee fec|cBA ABc|BAF F2B|
c2e fee|aee fec|cBA ABc|BAG A2B||
c2e fee|aee fec|cBA ABc|BAF F2G|
AFE ECE|Ace f2a|ecB BAB|cAG AcB||

